storage/app/icons/phosphoricons/light/toolbox-light.svg

<svg xmlns="http://www.w3.org/2000/svg" fill="currentColor" viewBox="0 0 256 256"><path d="M224 66h-50V56a22 22 0 0 0-22-22h-48a22 22 0 0 0-22 22v10H32a14 14 0 0 0-14 14v112a14 14 0 0 0 14 14h192a14 14 0 0 0 14-14V80a14 14 0 0 0-14-14M94 56a10 10 0 0 1 10-10h48a10 10 0 0 1 10 10v10H94ZM32 78h192a2 2 0 0 1 2 2v34h-36v-10a6 6 0 0 0-12 0v10H78v-10a6 6 0 0 0-12 0v10H30V80a2 2 0 0 1 2-2m192 116H32a2 2 0 0 1-2-2v-66h36v10a6 6 0 0 0 12 0v-10h100v10a6 6 0 0 0 12 0v-10h36v66a2 2 0 0 1-2 2"/></svg>

<svg xmlns="http://www.w3.org/2000/svg" viewBox="0 0 256 256" fill="currentColor"><path d="M224,66H174V56a22,22,0,0,0-22-22H104A22,22,0,0,0,82,56V66H32A14,14,0,0,0,18,80V192a14,14,0,0,0,14,14H224a14,14,0,0,0,14-14V80A14,14,0,0,0,224,66ZM94,56a10,10,0,0,1,10-10h48a10,10,0,0,1,10,10V66H94ZM32,78H224a2,2,0,0,1,2,2v34H190V104a6,6,0,0,0-12,0v10H78V104a6,6,0,0,0-12,0v10H30V80A2,2,0,0,1,32,78ZM224,194H32a2,2,0,0,1-2-2V126H66v10a6,6,0,0,0,12,0V126H178v10a6,6,0,0,0,12,0V126h36v66A2,2,0,0,1,224,194Z"/></svg>
